casedrop/img/upgrade/icons/upgrade.svg

<svg width="23" height="23" viewBox="0 0 23 23" fill="none" xmlns="http://www.w3.org/2000/svg">
<g clip-path="url(#clip0_15_1544)">
<path d="M15.0938 17.25H7.90625C7.525 17.25 7.15937 17.4015 6.88978 17.671C6.6202 17.9406 6.46875 18.3063 6.46875 18.6875V20.125C6.46875 20.5062 6.6202 20.8719 6.88978 21.1415C7.15937 21.411 7.525 21.5625 7.90625 21.5625H15.0938C15.475 21.5625 15.8406 21.411 16.1102 21.1415C16.3798 20.8719 16.5312 20.5062 16.5312 20.125V18.6875C16.5312 18.3063 16.3798 17.9406 16.1102 17.671C15.8406 17.4015 15.475 17.25 15.0938 17.25ZM15.0938 20.125H7.90625V18.6875H15.0938V20.125Z" fill="#2B56E8"/>
<path d="M20.633 10.2731L12.008 1.64809C11.9413 1.58132 11.8621 1.52835 11.7749 1.49221C11.6877 1.45607 11.5942 1.43747 11.4998 1.43747C11.4055 1.43747 11.312 1.45607 11.2248 1.49221C11.1376 1.52835 11.0584 1.58132 10.9917 1.64809L2.36669 10.2731C2.2662 10.3736 2.19777 10.5017 2.17005 10.6411C2.14233 10.7805 2.15657 10.925 2.21095 11.0563C2.26534 11.1876 2.35744 11.2998 2.47561 11.3788C2.59378 11.4578 2.73271 11.5 2.87485 11.5H6.4686V14.375C6.46903 14.7561 6.62063 15.1215 6.89011 15.391C7.1596 15.6605 7.52498 15.8121 7.9061 15.8125H15.0936C15.4747 15.812 15.84 15.6604 16.1095 15.3909C16.379 15.1214 16.5306 14.7561 16.5311 14.375V11.5H20.1248C20.267 11.5 20.4059 11.4578 20.5241 11.3788C20.6423 11.2998 20.7344 11.1876 20.7887 11.0563C20.8431 10.925 20.8574 10.7805 20.8296 10.6411C20.8019 10.5017 20.7335 10.3736 20.633 10.2731ZM15.0936 10.0625V14.375H7.9061V10.0625H4.60998L11.4998 3.17263L18.3897 10.0625H15.0936Z" fill="#2B56E8"/>
</g>
<defs>
<clipPath id="clip0_15_1544">
<rect width="23" height="23" fill="white"/>
</clipPath>
</defs>
</svg>

<svg width="23" height="23" fill="none" xmlns="http://www.w3.org/2000/svg"><g clip-path="url(#clip0_15_1544)" fill="#2B56E8"><path d="M15.094 17.25H7.906a1.438 1.438 0 00-1.437 1.438v1.437a1.438 1.438 0 001.437 1.438h7.188a1.438 1.438 0 001.437-1.438v-1.438a1.438 1.438 0 00-1.437-1.437zm0 2.875H7.906v-1.438h7.188v1.438zm5.539-9.852l-8.625-8.625a.718.718 0 00-1.016 0l-8.625 8.625a.719.719 0 00.508 1.227h3.594v2.875a1.44 1.44 0 001.437 1.438h7.188a1.44 1.44 0 001.437-1.438V11.5h3.594a.718.718 0 00.508-1.227zm-5.54-.21v4.312H7.907v-4.313H4.61l6.89-6.89 6.89 6.89h-3.296z"/></g><defs><clipPath id="clip0_15_1544"><path fill="#fff" d="M0 0h23v23H0z"/></clipPath></defs></svg>
